X:5168
T:Polka di Nello
O:england
C:Tre Martelli: Omi e paiz 11b
M:2/4
L:1/16
K:G
dd|d2ee e2dd|d2c2 c2e2|e3d f3c|e2e2 d(3Bdg|b2b2 g2g2|
f3e d3e|1 f3e dcFc|e2dd d2dd:|2 f3e dcAF|G2(3BdB G2Bd||
K:C
|:e3e fede|ceeg ceeg|Bddf B2Bd|a2gg g2g2|
e4 fe (3ded|ceeg ceeg|B2(3Bdf a2B2|c2cc c4:|


